src/images/svg/blog/video/right-arrow.svg

<svg width="32" height="32" viewBox="0 0 32 32" fill="none" xmlns="http://www.w3.org/2000/svg">
<path d="M11.4149 24.2638C11.8641 24.713 12.5883 24.713 13.0374 24.2638L20.6549 16.6463C21.0124 16.2888 21.0124 15.7113 20.6549 15.3538L13.0374 7.73629C12.5883 7.28712 11.8641 7.28712 11.4149 7.73629C10.9658 8.18546 10.9658 8.90962 11.4149 9.35879L18.0516 16.0046L11.4058 22.6505C10.9658 23.0905 10.9658 23.8238 11.4149 24.2638Z" fill="white"/>
<circle cx="16" cy="16" r="15" stroke="white" stroke-width="2"/>
</svg>

<svg width="32" height="32" fill="none" xmlns="http://www.w3.org/2000/svg"><path d="M11.415 24.264c.45.449 1.173.449 1.622 0l7.618-7.618a.913.913 0 0 0 0-1.292l-7.618-7.618a1.145 1.145 0 0 0-1.622 0c-.45.45-.45 1.174 0 1.623l6.637 6.646-6.646 6.646c-.44.44-.44 1.173.009 1.613z" fill="#fff"/><circle cx="16" cy="16" r="15" stroke="#fff" stroke-width="2"/></svg>
